X:1
T: Miss Gordon of Lessmore
C:
R:Strathspey
Q: 128
K:F
M:4/4
L:1/16
|:c2|F3G A3B c3A F3A|GABc dcBA G3F D3E|F3G A3B c3A f3c|d2Bd cfcB AF3 F2c2|
F3G A3B c3A F3A|GABc dcBA G3F D3E|F3G A3B c3A f3c|d2Bd cfcB AF3 F2c2|
f3c a3f b3g a3f|ecbg a3f g3f d3e|f3g a3f cAaf c3A|d3f c3B AF3 F2c2|
f3c AF3 d3B GE3|FAcf afcA BG3 G3A|F3A, B,3C D3E F3d|c3f G3E F4 F2:|
